images/icon.svg

<?xml version="1.0" encoding="UTF-8"?>
<svg xmlns="http://www.w3.org/2000/svg" height="600" width="600" version="1.1" viewBox="0 0 600 600" overflow="visible" enable-background="new 0 0 600 600" xml:space="preserve">
    <defs>
        <linearGradient id="linearGradient">
            <stop offset="0%" style="stop-color:#f9f9f9" />
            <stop offset="100%" style="stop-color:#ffffff" />
        </linearGradient>
    </defs>
    <path style="fill:url(#linearGradient);stroke:#dfdfdf;stroke-width:3" d="m 585.00174,515.21751 c 0,38.38132 -31.40298,69.78423 -69.78436,69.78423 H 84.782595 c -38.381387,0 -69.784338,-31.40291 -69.784338,-69.78423 V 84.782468 c 0,-38.381318 31.402951,-69.784214 69.784338,-69.784214 H 515.21738 c 38.38138,0 69.78436,31.402896 69.78436,69.784214 z" />
    <g style="fill:#2d2d2d">
        <path style="fill:#2d2d2d" d="M88.941,73.321v188.235h188.235V73.321H88.941z M241.882,226.262H124.235V108.615h117.646V226.262z" />
        <rect style="fill:#2d2d2d" x="157.176" y="141.556" width="51.765" height="51.765" />
        <rect style="fill:#2d2d2d" x="325.235" y="92.907" width="51.765" height="149.412" />
        <rect style="fill:#2d2d2d" x="418.177" y="191.73" width="51.765" height="51.765" />
        <rect style="fill:#2d2d2d" x="88.94" y="307.554" width="51.765" height="51.765" />
        <rect style="fill:#2d2d2d" x="221.293" y="307.554" width="51.765" height="51.765" />
        <rect style="fill:#2d2d2d" x="169.506" y="359.351" width="51.766" height="51.765" />
        <rect style="fill:#2d2d2d" x="247.116" y="443.495" width="51.766" height="51.765" />
        <polygon style="fill:#2d2d2d" points="120.705,463.495 120.705,401.142 88.94,401.142 88.94,495.26 183.059,495.26 183.059,463.495" />
        <polygon style="fill:#2d2d2d" points="416.941,73.32 416.941,105.085 479.295,105.085 479.295,167.438 511.06,167.438 511.06,73.32" />
        <path style="fill:#2d2d2d" d="M416.354,305.672c-52.305,0-94.706,42.401-94.706,94.706s42.401,94.706,94.706,94.706s94.706-42.401,94.706-94.706 h-94.706V305.672z" />
        <path d="m 14.998,484.72466 v 30.49219 c 0,38.38132 31.40377,69.78515 69.78516,69.78515 h 430.43359 c 38.38138,0 69.78515,-31.40383 69.78515,-69.78515 v -30.49219 c -0.24969,36.49919 -31.54596,66.28906 -69.77539,66.28906 H 84.77339 c -38.22943,0 -69.52873,-29.78987 -69.77539,-66.28906 z" style="fill:#dfdfdf" />
    </g>
</svg>

<?xml version="1.0" encoding="UTF-8"?>
<svg width="600" height="600" enable-background="new 0 0 600 600" overflow="visible" version="1.1" viewBox="0 0 600 600" xml:space="preserve" xmlns="http://www.w3.org/2000/svg">
    <defs>
        <linearGradient id="linearGradient" x1="300" x2="300" y1="586.5" y2="13.238" gradientUnits="userSpaceOnUse">
            <stop stop-color="#f9f9f9" offset="0"/>
            <stop stop-color="#fff" offset="1"/>
        </linearGradient>
    </defs>
    <path d="m585 515.22c0 38.381-31.403 69.784-69.784 69.784h-430.43c-38.381 0-69.784-31.403-69.784-69.784v-430.44c0-38.381 31.403-69.784 69.784-69.784h430.43c38.381 0 69.784 31.403 69.784 69.784z" fill="url(#linearGradient)" stroke="#dfdfdf" stroke-width="3"/>
    <g fill="#2d2d2d">
        <path d="m88.941 73.321v188.24h188.24v-188.24h-188.24zm152.94 152.94h-117.65v-117.65h117.65v117.65z"/>
        <rect x="157.18" y="141.56" width="51.765" height="51.765"/>
        <rect x="325.24" y="92.907" width="51.765" height="149.41"/>
        <rect x="418.18" y="191.73" width="51.765" height="51.765"/>
        <rect x="88.94" y="307.55" width="51.765" height="51.765"/>
        <rect x="221.29" y="307.55" width="51.765" height="51.765"/>
        <rect x="169.51" y="359.35" width="51.766" height="51.765"/>
        <rect x="247.12" y="443.5" width="51.766" height="51.765"/>
        <polygon points="120.7 463.5 120.7 401.14 88.94 401.14 88.94 495.26 183.06 495.26 183.06 463.5"/>
        <polygon points="416.94 73.32 416.94 105.08 479.3 105.08 479.3 167.44 511.06 167.44 511.06 73.32"/>
        <path d="m416.35 305.67c-52.305 0-94.706 42.401-94.706 94.706s42.401 94.706 94.706 94.706 94.706-42.401 94.706-94.706h-94.706v-94.706z"/>
        </g><path d="m14.998 484.72v30.492c0 38.381 31.404 69.785 69.785 69.785h430.43c38.381 0 69.785-31.404 69.785-69.785v-30.492c-0.24969 36.499-31.546 66.289-69.775 66.289h-430.45c-38.229 0-69.529-29.79-69.775-66.289z" fill="#dfdfdf"/>
</svg>
